X:1
T:Amherst (Bartlett), CM
T:Amherst (Bartlett), CM
T:Homer Newton Bartlett, 1897
T:Public Domain Courtesy of the Cyber Hymnal™
C:Homer Newton Bartlett, 1897
Z:Public Domain
Z:Courtesy of the Cyber Hymnal™
%%score ( 1 2 ) ( 3 4 )
L:1/8
Q:1/4=140
M:4/4
K:Ab
V:1 treble 
V:2 treble 
V:3 bass 
V:4 bass 
V:1
 A2 | [Ac]4 ([GB]2 A2) | [Gd]4 [Ac]4 | [AB]4 (c2 d2) | [Ac]4 [Ac]4 | B4 e4 | [Be]4 [B=d]4 | %7
 [Be]6 B2 | [Be]4 (d2 c2) | [=Af]4 B4 | [Be]4 (d2 c2) | [Bd]4 B4 | [Ac]4 (d2 e2) | %13
 f4 ([ce]2 [Bd]2) | [Ac]8 |] %15
V:2
 A2 | x6 A2 | x8 | x4 G4 | x8 | B4 (G2 A2) | x8 | x6 B2 | x4 =A4 | x4 B4 | x4 =A4 | x4 B4 | x4 A4 | %13
 (A2 d2) x4 | x8 |] %15
V:3
 [A,,C,]2 | [A,,E,]4 E,4 | [B,,E,]4 [C,E,]4 | [D,F,]4 E,4 | [A,,E,]4 [A,,E,]4 | [G,,E,]4 E,4 | %6
 [B,,F,]4 [B,,F,]4 | [E,G,]6 [E,G,]2 | [C,_G,]4 F,4 | [D,F,]4 _G,4 | [C,_G,]4 [F,,F,]4 | %11
 [B,,F,]4 [E,G,]4 | (A,2 G,2) _G,4 | [D,F,]4 [E,G,]4 | [A,,E,]8 |] %15
V:4
 x2 | x4 (D,2 C,2) | x8 | x4 E,4 | x8 | x4 (C,2 _C,2) | x8 | x8 | x4 F,2 E,2 | x4 _G,4 | x8 | x8 | %12
 A,,4 B,,2 C,2 | x8 | x8 |] %15

